status/24/network-cellular-signal-good-symbolic.svg

<?xml version="1.0" encoding="UTF-8" standalone="no"?>
<svg
   xmlns:dc="http://purl.org/dc/elements/1.1/"
   xmlns:cc="http://creativecommons.org/ns#"
   xmlns:rdf="http://www.w3.org/1999/02/22-rdf-syntax-ns#"
   xmlns:svg="http://www.w3.org/2000/svg"
   xmlns="http://www.w3.org/2000/svg"
   id="svg3778"
   height="24"
   width="24"
   version="1.1">
  <defs
     id="defs3780" />
  <metadata
     id="metadata3783">
    <rdf:RDF>
      <cc:Work
         rdf:about="">
        <dc:format>image/svg+xml</dc:format>
        <dc:type
           rdf:resource="http://purl.org/dc/dcmitype/StillImage" />
        <dc:title />
      </cc:Work>
    </rdf:RDF>
  </metadata>
  <path
     id="path3883"
     d="M 16.5,11 C 16.223,11 16,11.223 16,11.5 l 0,8 c 0,0.277 0.223,0.5 0.5,0.5 l 1,0 c 0.277,0 0.5,-0.223 0.5,-0.5 l 0,-8 C 18,11.223 17.777,11 17.5,11 Z M 1.46875,12 1,13 4,16 4,20 5,20 5,16 8,13 7.625,12 Z M 2.375,13 4,13 4,14.625 Z M 5,13 6.625,13 5,14.625 Z m 7.5,1 C 12.223,14 12,14.223 12,14.5 l 0,5 c 0,0.277 0.223,0.5 0.5,0.5 l 1,0 c 0.277,0 0.5,-0.223 0.5,-0.5 l 0,-5 C 14,14.223 13.777,14 13.5,14 Z m -4,3 C 8.223,17 8,17.223 8,17.5 l 0,2 C 8,19.777 8.223,20 8.5,20 l 1,0 C 9.777,20 10,19.777 10,19.5 l 0,-2 C 10,17.223 9.777,17 9.5,17 Z"
     style="color:#000000;clip-rule:nonzero;display:inline;overflow:visible;visibility:visible;isolation:auto;mix-blend-mode:normal;color-interpolation:sRGB;color-interpolation-filters:linearRGB;solid-color:#000000;solid-opacity:1;fill:#bebebe;fill-opacity:1;fill-rule:nonzero;stroke:none;stroke-width:1;stroke-linecap:butt;stroke-linejoin:miter;stroke-miterlimit:4;stroke-dasharray:none;stroke-dashoffset:0;stroke-opacity:1;marker:none;color-rendering:auto;image-rendering:auto;shape-rendering:auto;text-rendering:auto;enable-background:accumulate" />
  <path
     id="path3883-1"
     d="M 20.5,8 C 20.223,8 20,8.223 20,8.5 l 0,11 c 0,0.277 0.223,0.5 0.5,0.5 l 1,0 c 0.277,0 0.5,-0.223 0.5,-0.5 l 0,-11 C 22,8.223 21.777,8 21.5,8 Z"
     style="color:#000000;clip-rule:nonzero;display:inline;overflow:visible;visibility:visible;isolation:auto;mix-blend-mode:normal;color-interpolation:sRGB;color-interpolation-filters:linearRGB;solid-color:#000000;solid-opacity:1;fill:#bebebe;fill-opacity:1;fill-rule:nonzero;stroke:none;stroke-width:1;stroke-linecap:butt;stroke-linejoin:miter;stroke-miterlimit:4;stroke-dasharray:none;stroke-dashoffset:0;stroke-opacity:1;marker:none;color-rendering:auto;image-rendering:auto;shape-rendering:auto;text-rendering:auto;enable-background:accumulate;opacity:0.4" />
</svg>

<svg xmlns="http://www.w3.org/2000/svg" height="24" width="24"><path d="M16.5 11a.5.5 0 0 0-.5.5v8a.5.5 0 0 0 .5.5h1a.5.5 0 0 0 .5-.5v-8a.5.5 0 0 0-.5-.5zM1.47 12L1 13l3 3v4h1v-4l3-3-.375-1zm.905 1H4v1.625zM5 13h1.625L5 14.625zm7.5 1a.5.5 0 0 0-.5.5v5a.5.5 0 0 0 .5.5h1a.5.5 0 0 0 .5-.5v-5a.5.5 0 0 0-.5-.5zm-4 3a.5.5 0 0 0-.5.5v2a.5.5 0 0 0 .5.5h1a.5.5 0 0 0 .5-.5v-2a.5.5 0 0 0-.5-.5z" style="isolation:auto;mix-blend-mode:normal" color="#000" overflow="visible" fill="#bebebe"/><path d="M20.5 8a.5.5 0 0 0-.5.5v11a.5.5 0 0 0 .5.5h1a.5.5 0 0 0 .5-.5v-11a.5.5 0 0 0-.5-.5z" style="isolation:auto;mix-blend-mode:normal" color="#000" overflow="visible" fill="#bebebe" opacity=".4"/></svg>
